icons/notifications.svg

<svg xmlns:xlink="http://www.w3.org/1999/xlink" xmlns="http://www.w3.org/2000/svg" enable-background="new 0 0 24 24" height="24" viewBox="0 0 24 24" width="24" focusable="false" aria-hidden="true" style="pointer-events: none; display: inherit; width: 100%; height: 100%;"><path d="M10 20h4c0 1.1-.9 2-2 2s-2-.9-2-2zm10-2.65V19H4v-1.65l2-1.88v-5.15C6 7.4 7.56 5.1 10 4.34v-.38c0-1.42 1.49-2.5 2.99-1.76.65.32 1.01 1.03 1.01 1.76v.39c2.44.75 4 3.06 4 5.98v5.15l2 1.87zm-1 .42-2-1.88v-5.47c0-2.47-1.19-4.36-3.13-5.1-1.26-.53-2.64-.5-3.84.03C8.15 6.11 7 7.99 7 10.42v5.47l-2 1.88V18h14v-.23z" fill="#FFFFFF"></path></svg>

<svg xmlns="http://www.w3.org/2000/svg" viewBox="0 0 24 24" preserveAspectRatio="xMidYMid meet" focusable="false" class="style-scope yt-icon" style="pointer-events: none; display: block; width: 100%; height: 100%;"><g class="style-scope yt-icon"><path d="M10,20h4c0,1.1-0.9,2-2,2S10,21.1,10,20z M20,17.35V19H4v-1.65l2-1.88v-5.15c0-2.92,1.56-5.22,4-5.98V3.96 c0-1.42,1.49-2.5,2.99-1.76C13.64,2.52,14,3.23,14,3.96l0,0.39c2.44,0.75,4,3.06,4,5.98v5.15L20,17.35z M19,17.77l-2-1.88v-5.47 c0-2.47-1.19-4.36-3.13-5.1c-1.26-0.53-2.64-0.5-3.84,0.03C8.15,6.11,7,7.99,7,10.42v5.47l-2,1.88V18h14V17.77z" class="style-scope yt-icon"/></g></svg>
